public/avatar/shoe/127.svg

<svg xmlns:xlink="http://www.w3.org/1999/xlink" height="38.3" width="36.05" xmlns="http://www.w3.org/2000/svg"><use height="17.3" transform="translate(9.3 11.1)" width="21.3" xlink:href="#a"/><defs><g id="a" fill-rule="evenodd"><path d="M-3.15-3.05q.9.35 4.85-.7Q3.05-3.8 4.5-2.3 6.25-.6 6.1 1.8q1.4 4.35-.05 6.5.05 1.8-.4 2.2-6 2.8-10.55 3.05l-6.2-.35q-2.75-.6-2.9-1.65l-.15-1.65q-.9-2.6.4-4.3l3.8-3.45L-7.2-1l1.15-1.45q1.3-1.15 2.9-.6" fill="#1b181e" transform="translate(14.5 3.75)"/><path d="M-3.1-2.1q.65.3 3.45-.6l1.4-.1q.85 0 2.05 1.15 1.3 1.5 1.4 2.8l-.05.6v.2l.05.15.7 3.15q.1 1.6-.65 2.55l-.15.3.05.25-.1 1.45Q-.45 12.35-5 12.65q-7.35.45-8.1-1.3l-.15-1.15-.25.45.2-.4.05-.65q-.7-2.15.25-3.45 1.3-1.55 3.1-2.85l3.45-3.75 1.15-1.2q1.15-.95 2.2-.45" fill="#242121" transform="translate(14.5 3.75)"/><path d="M4.9 2.1q1.45 3.6.15 5.35-1.4 1.9-1.55.85 2-4.35 1.4-6.2m-8.25-4.2q1.45.15 2.6 2.35 1.15 2 .6 2.9L-2.7 5.5q-4.2 4.55-7.4 4.35-3.65-.25-3.4-1.75.15-.9 2.3-3.1Q-6.8.25-5.85-.2l.75-1.15q.5-.85 1.75-.75" fill="#515151" transform="translate(14.5 3.75)"/><path d="M5.15 6.8q-.1.5-1.75 1.05-1.65.6-2.45.4Q.1 8.1 1.4 5.9 2.65 3.7 4 3.6q.9-.05 1.2 1.1.3 1-.05 2.1m-17.2 2.3q-1.45-.4-1.05-1.7.45-1.25 2.45-2.4l4.15-.1q2.15 1.05 1.25 2.4Q-6.4 9-8.9 9.35l-3.15-.25M-4 5q-1-.65-4.6-1.05-1.8-.35.35-1.4.9-.45 2.7 0Q-3.8 3-3 3.75-2 4.6-4 5m-2.9-3.45Q-8.2 1.3-6.5.4q2.35-1.2 4.95.7 1.2.85.95 1.75l-1.65-.05q-.7-.55-4.65-1.25" fill="#b30002" transform="translate(14.5 3.75)"/><path d="m-.6-1.9 2.4-.25q.9.1 1.65.75.8.75.2 1.5-.5.75-3.95 1-1-2.55-1.95-2.85L-.6-1.9m5.95 9.95-.15.5Q2 10.9-5.7 11.35l-5.7-.4-2-.6.1-.55.95.6 6.5.45q7.5-.15 11.2-2.8" fill="#1b181e" transform="translate(14.5 3.75)"/><path d="M-7.3.9-9 3.55l-2.95 2.3L-7.3.9" fill="#bbb" transform="translate(14.5 3.75)"/><path d="M-8.6 5.25q1 .65.1 1.05l-1.9.25q-1.25.05-1.6.45-.25.4.5 1.5.6.8.15.7-1.9-.25-1.75-1.55.05-.8 1.15-1.7l1.15-.75 2.2.05M-7.45 4q-1.9 0-1.75-.55.3-.95 1.9-1.05.8 0 1.1.3.25.4-.3.65l-.95.65m2-2.4-1.75-.2q-.3-.15 0-.5.35-.45 1.15-.55l1.3.15q.4.3.1.5l-.8.6" fill="#ff0002" transform="translate(14.5 3.75)"/><path d="m-11.05 11.1-.45.2q-.3.4.35.9-1.7-.3-1.95-.75l-.15-1 2.2.65m16.1-2.4v1.1q-.2.4-1.6.65.75-.45.8-1.35l.8-.4" fill="#515151" transform="translate(14.5 3.75)"/><path d="m4.8 4 .5 2q-.1 1.15-1.25 1.6.85-2.45.75-3.6" fill="#ff0002" transform="translate(14.5 3.75)"/><path d="M4-1.6q-1.1-.6-2.2-.55l-3.05-.15q-.45-.45 3.35-.45L4-1.6" fill="#515151" transform="translate(14.5 3.75)"/><path d="M-2.85-1.95q-1.2 0-1.95.9l-.5.85-.65-.1.85-1.3q.7-.75 2.25-.35" fill="#bbb" transform="translate(14.5 3.75)"/><path d="M-5.55 5.1q.45.15.3.65-.25.55-.7.3-1.95-.8-4-.45-.5.1-.6-.45-.15-.5.45-.6 2.35-.35 4.55.55m2.35-2.4q.45.25.2.7-.35.55-.75.2-1.8-.9-3.85-.55-.5 0-.6-.45 0-.5.45-.6 2.45-.4 4.55.7M-6.55.4q-.1-.5.45-.6 2.35-.4 4.45.7.55.25.25.7-.25.55-.75.2Q-3.9.5-5.95.85q-.5.1-.6-.45" fill="#fff" transform="translate(14.5 3.75)"/></g></defs></svg>

<?xml version="1.0" encoding="UTF-8" standalone="no"?>
<svg xmlns:xlink="http://www.w3.org/1999/xlink" height="38.3px" width="36.05px" xmlns="http://www.w3.org/2000/svg">
  <g transform="matrix(1.0, 0.0, 0.0, 1.0, 23.8, 14.85)">
    <use height="17.3" transform="matrix(1.0, 0.0, 0.0, 1.0, -14.5, -3.75)" width="21.3" xlink:href="#shape0"/>
  </g>
  <defs>
    <g id="shape0" transform="matrix(1.0, 0.0, 0.0, 1.0, 14.5, 3.75)">
      <path d="M-3.15 -3.05 Q-2.25 -2.7 1.7 -3.75 3.05 -3.8 4.5 -2.3 6.25 -0.6 6.1 1.8 7.5 6.15 6.05 8.3 6.1 10.1 5.65 10.5 -0.35 13.3 -4.9 13.55 L-11.1 13.2 Q-13.85 12.6 -14.0 11.55 L-14.15 9.9 Q-15.05 7.3 -13.75 5.6 L-9.95 2.15 -7.2 -1.0 -6.05 -2.45 Q-4.75 -3.6 -3.15 -3.05" fill="#1b181e" fill-rule="evenodd" stroke="none"/>
      <path d="M-3.1 -2.1 Q-2.45 -1.8 0.35 -2.7 L1.75 -2.8 Q2.6 -2.8 3.8 -1.65 5.1 -0.15 5.2 1.15 L5.15 1.75 5.15 1.95 5.2 2.1 5.9 5.25 Q6.0 6.85 5.25 7.8 L5.1 8.1 5.15 8.35 5.05 9.8 Q-0.45 12.35 -5.0 12.65 -12.35 13.1 -13.1 11.35 L-13.25 10.2 -13.5 10.65 -13.3 10.25 -13.25 9.6 Q-13.95 7.45 -13.0 6.15 -11.7 4.6 -9.9 3.3 L-6.45 -0.45 -5.3 -1.65 Q-4.15 -2.6 -3.1 -2.1" fill="#242121" fill-rule="evenodd" stroke="none"/>
      <path d="M4.9 2.1 Q6.35 5.7 5.05 7.45 3.65 9.35 3.5 8.3 5.5 3.95 4.9 2.1" fill="#515151" fill-rule="evenodd" stroke="none"/>
      <path d="M-3.35 -2.1 Q-1.9 -1.95 -0.75 0.25 0.4 2.25 -0.15 3.15 L-2.7 5.5 Q-6.9 10.05 -10.1 9.85 -13.75 9.6 -13.5 8.1 -13.35 7.2 -11.2 5.0 -6.8 0.25 -5.85 -0.2 L-5.1 -1.35 Q-4.6 -2.2 -3.35 -2.1" fill="#515151" fill-rule="evenodd" stroke="none"/>
      <path d="M5.15 6.8 Q5.05 7.3 3.4 7.85 1.75 8.45 0.95 8.25 0.1 8.1 1.4 5.9 2.65 3.7 4.0 3.6 4.9 3.55 5.2 4.7 5.5 5.7 5.15 6.8" fill="#b30002" fill-rule="evenodd" stroke="none"/>
      <path d="M-12.05 9.1 Q-13.5 8.7 -13.1 7.4 -12.65 6.15 -10.65 5.0 L-6.5 4.9 Q-4.35 5.95 -5.25 7.3 -6.4 9.0 -8.9 9.35 L-12.05 9.1" fill="#b30002" fill-rule="evenodd" stroke="none"/>
      <path d="M-4.0 5.0 Q-5.0 4.35 -8.6 3.95 -10.4 3.6 -8.25 2.55 -7.35 2.1 -5.55 2.55 -3.8 3.0 -3.0 3.75 -2.0 4.6 -4.0 5.0" fill="#b30002" fill-rule="evenodd" stroke="none"/>
      <path d="M-6.9 1.55 Q-8.2 1.3 -6.5 0.4 -4.15 -0.8 -1.55 1.1 -0.35 1.95 -0.6 2.85 L-2.25 2.8 Q-2.95 2.25 -6.9 1.55" fill="#b30002" fill-rule="evenodd" stroke="none"/>
      <path d="M-0.6 -1.9 L1.8 -2.15 Q2.7 -2.05 3.45 -1.4 4.25 -0.65 3.65 0.1 3.15 0.85 -0.3 1.1 -1.3 -1.45 -2.25 -1.75 L-0.6 -1.9" fill="#1b181e" fill-rule="evenodd" stroke="none"/>
      <path d="M5.35 8.05 L5.2 8.55 Q2.0 10.9 -5.7 11.35 L-11.4 10.95 -13.4 10.35 -13.3 9.8 -12.35 10.4 -5.85 10.85 Q1.65 10.7 5.35 8.05" fill="#1b181e" fill-rule="evenodd" stroke="none"/>
      <path d="M-7.3 0.9 L-9.0 3.55 -11.95 5.85 -7.3 0.9" fill="#bbbbbb" fill-rule="evenodd" stroke="none"/>
      <path d="M-8.6 5.25 Q-7.6 5.9 -8.5 6.3 L-10.4 6.55 Q-11.65 6.6 -12.0 7.0 -12.25 7.4 -11.5 8.5 -10.9 9.3 -11.35 9.2 -13.25 8.95 -13.1 7.65 -13.05 6.85 -11.95 5.95 L-10.8 5.2 -8.6 5.25" fill="#ff0002" fill-rule="evenodd" stroke="none"/>
      <path d="M-7.45 4.0 Q-9.35 4.0 -9.2 3.45 -8.9 2.5 -7.3 2.4 -6.5 2.4 -6.2 2.7 -5.95 3.1 -6.5 3.35 L-7.45 4.0" fill="#ff0002" fill-rule="evenodd" stroke="none"/>
      <path d="M-5.45 1.6 L-7.2 1.4 Q-7.5 1.25 -7.2 0.9 -6.85 0.45 -6.05 0.35 L-4.75 0.5 Q-4.35 0.8 -4.65 1.0 L-5.45 1.6" fill="#ff0002" fill-rule="evenodd" stroke="none"/>
      <path d="M-11.05 11.1 L-11.5 11.3 Q-11.8 11.7 -11.15 12.2 -12.85 11.9 -13.1 11.45 L-13.25 10.45 -11.05 11.1" fill="#515151" fill-rule="evenodd" stroke="none"/>
      <path d="M5.05 8.7 L5.05 9.8 Q4.85 10.2 3.45 10.45 4.2 10.0 4.25 9.1 L5.05 8.7" fill="#515151" fill-rule="evenodd" stroke="none"/>
      <path d="M4.8 4.0 L5.3 6.0 Q5.2 7.15 4.05 7.6 4.9 5.15 4.8 4.0" fill="#ff0002" fill-rule="evenodd" stroke="none"/>
      <path d="M4.0 -1.6 Q2.9 -2.2 1.8 -2.15 L-1.25 -2.3 Q-1.7 -2.75 2.1 -2.75 L4.0 -1.6" fill="#515151" fill-rule="evenodd" stroke="none"/>
      <path d="M-2.85 -1.95 Q-4.05 -1.95 -4.8 -1.05 L-5.3 -0.2 -5.95 -0.3 -5.1 -1.6 Q-4.4 -2.35 -2.85 -1.95" fill="#bbbbbb" fill-rule="evenodd" stroke="none"/>
      <path d="M-5.55 5.1 Q-5.1 5.25 -5.25 5.75 -5.5 6.3 -5.95 6.05 -7.9 5.25 -9.95 5.6 -10.45 5.7 -10.55 5.15 -10.7 4.65 -10.1 4.55 -7.75 4.2 -5.55 5.1" fill="#ffffff" fill-rule="evenodd" stroke="none"/>
      <path d="M-3.2 2.7 Q-2.75 2.95 -3.0 3.4 -3.35 3.95 -3.75 3.6 -5.55 2.7 -7.6 3.05 -8.1 3.05 -8.2 2.6 -8.2 2.1 -7.75 2.0 -5.3 1.6 -3.2 2.7" fill="#ffffff" fill-rule="evenodd" stroke="none"/>
      <path d="M-6.55 0.4 Q-6.65 -0.1 -6.1 -0.2 -3.75 -0.6 -1.65 0.5 -1.1 0.75 -1.4 1.2 -1.65 1.75 -2.15 1.4 -3.9 0.5 -5.95 0.85 -6.45 0.95 -6.55 0.4" fill="#ffffff" fill-rule="evenodd" stroke="none"/>
    </g>
  </defs>
</svg>
